X: 07023
T: CULHANE'S HORNPIPE
C: Bob McQuillen 15 Apr 89
B: Bob's Note Book 7 #23
%R: hornpipe, reel
Z: 2020 John Chambers <jc:trillian.mit.edu>
M: C
L: 1/8
K: E
B,D \
| E2EG EDB,A, | B,DEG E2GA | B2BG ABGB | d2B2 B2Bd |
| edeg edBA   | Bded  BAGE | DEGB dBAB | G2E2 E2 :|
|: ef \
| gage e2ge   | dedB d2Bd  | e2de gage | d2B2 B2Bd |
| e2eg feBG   | ABGE D2DE  | GABd edBA | G2E2 E2 :|
%%begintext align
%% This one's for John
%% Culhane of Seattle, WA. John's a real fine
%% fiddler, and he and Laurie Anders and
%% I had a wonderful time, playing music together
%% when I was out west recently - I will be so
%% happy when we get to do it again, John!
%%endtext

%%sep 1 1 500

%%sep 1 1 500

